X:19
T:No.119 Casey's Pig
M:4/4
L:1/8
C:highland
K:G
G2G>D E>DG>B|(3dcB g>B A2A>B|
G>AG>D E>DG>B|(3EFG D>CB,G, G,2:|
g>ab<g d2d>e|g>ab<g e2e>f|
(3gab (3efg d<gB>G|A>GA>B G2G>B|
g>ab<g d2d>e|g>ab<g e2e>f|
g>be>g d>gB>G|A>GA>B G>cB>A||
